dist/assets/media/img/logo-min.svg

<svg width="100" height="33" viewBox="0 0 100 33" fill="none" xmlns="http://www.w3.org/2000/svg">
<path d="M27.7679 23.1707C26.1024 23.1707 24.7517 22.5758 23.7159 21.3861C23.5737 21.2161 23.5128 21.0249 23.5331 20.8124C23.5534 20.6 23.6448 20.43 23.8073 20.3026C23.9495 20.1538 24.112 20.0901 24.2948 20.1113C24.4979 20.1326 24.6705 20.2282 24.8127 20.3982C25.5236 21.2267 26.5086 21.641 27.7679 21.641C28.9865 21.641 29.9513 21.2267 30.6622 20.3982C31.3934 19.5696 31.7996 18.3905 31.8808 16.8608H28.9221C28.719 16.8608 28.5464 16.797 28.4042 16.6696C28.2824 16.5208 28.2214 16.3403 28.2214 16.1278C28.2214 15.8941 28.2824 15.7135 28.4042 15.586C28.5464 15.4373 28.719 15.363 28.9221 15.363H31.8503C31.7082 13.9183 31.2816 12.8135 30.5708 12.0487C29.8802 11.2838 28.9459 10.9014 27.7679 10.9014C26.5086 10.9014 25.5236 11.3263 24.8127 12.1761C24.6705 12.3248 24.4979 12.4098 24.2948 12.4311C24.112 12.4311 23.9495 12.3673 23.8073 12.2399C23.6448 12.0911 23.5534 11.9106 23.5331 11.6981C23.5128 11.4856 23.5737 11.3051 23.7159 11.1563C24.7517 9.94534 26.1024 9.33984 27.7679 9.33984C29.474 9.33984 30.8247 9.95597 31.8199 11.1882C32.8354 12.4205 33.3432 14.1095 33.3432 16.2553C33.3432 18.3798 32.8354 20.0689 31.8199 21.3223C30.8247 22.5546 29.474 23.1707 27.7679 23.1707Z" fill="#46403C"/>
<path d="M69.589 23.202C67.8625 23.202 66.5017 22.5858 65.5065 21.3536C64.5113 20.1001 64.0137 18.4111 64.0137 16.2865C64.0137 14.1407 64.5113 12.4517 65.5065 11.2195C66.5017 9.98722 67.8625 9.37109 69.589 9.37109C71.092 9.37109 72.3512 9.91285 73.3668 10.9964C74.4026 12.0799 74.9612 13.5458 75.0424 15.3942V15.4898C75.0424 15.681 74.9713 15.851 74.8291 15.9997C74.7073 16.1484 74.5346 16.2228 74.3112 16.2228H65.476C65.476 17.8587 65.801 19.1759 66.451 20.1745C67.1212 21.173 68.1672 21.6723 69.589 21.6723C70.3201 21.6723 71.0006 21.5129 71.6302 21.1942C72.2801 20.8543 72.7777 20.4188 73.123 19.8876C73.2449 19.7177 73.3972 19.6115 73.58 19.569C73.7831 19.5265 73.9659 19.569 74.1284 19.6964C74.2909 19.8027 74.3925 19.962 74.4331 20.1745C74.4737 20.3869 74.4331 20.5781 74.3112 20.7481C73.8238 21.4917 73.1535 22.0866 72.3004 22.5327C71.4677 22.9789 70.5639 23.202 69.589 23.202ZM65.5674 14.725H73.4582C73.2551 13.514 72.8082 12.5792 72.1176 11.9206C71.4474 11.262 70.6045 10.9326 69.589 10.9326C68.4922 10.9326 67.5985 11.262 66.9079 11.9206C66.2377 12.5792 65.7909 13.514 65.5674 14.725Z" fill="#46403C"/>
<path d="M77.0378 23.1342C76.8956 23.0067 76.8042 22.8367 76.7636 22.6243C76.7433 22.4118 76.8042 22.2312 76.9464 22.0825L81.5467 15.6192L77.708 10.4565C77.5862 10.2866 77.5354 10.106 77.5557 9.91478C77.5963 9.70232 77.6877 9.52174 77.8299 9.37302C77.9924 9.26679 78.165 9.2243 78.3478 9.24555C78.5509 9.26679 78.7134 9.36239 78.8353 9.53236L82.4607 14.4082L86.0862 9.53236C86.2081 9.36239 86.3604 9.26679 86.5432 9.24555C86.7463 9.2243 86.9291 9.27741 87.0916 9.40489C87.2541 9.53236 87.3455 9.70232 87.3658 9.91478C87.3861 10.106 87.3353 10.2866 87.2134 10.4565L83.3747 15.6192L88.0056 22.0825C88.1071 22.2312 88.1477 22.4118 88.1274 22.6243C88.1071 22.8367 88.0157 23.0067 87.8532 23.1342C87.7111 23.2616 87.5384 23.3041 87.3353 23.2616C87.1322 23.2404 86.9697 23.1554 86.8479 23.0067L82.4607 17.111L78.0736 23.0067C77.9518 23.1554 77.7893 23.2404 77.5862 23.2616C77.383 23.3041 77.2003 23.2616 77.0378 23.1342Z" fill="#46403C"/>
<path fill-rule="evenodd" clip-rule="evenodd" d="M17.7908 11.2258C17.4342 10.1513 15.9144 10.1513 15.5579 11.2258L11.8756 22.3222C11.7188 22.7949 12.0707 23.2825 12.5687 23.2825C12.8833 23.2825 13.1625 23.081 13.2617 22.7825C13.2618 22.7824 13.2618 22.7823 13.2618 22.7822L16.3022 13.6201C16.3022 13.62 16.3022 13.62 16.3022 13.6199L16.6743 12.4987L17.0465 13.6201L20.0868 22.7822C20.1859 23.0809 20.4652 23.2825 20.7799 23.2825C21.2779 23.2825 21.6299 22.7949 21.473 22.3222L17.7908 11.2258Z" fill="#46403C"/>
<mask id="mask0_156_6796" style="mask-type:alpha" maskUnits="userSpaceOnUse" x="35" y="9" width="28" height="18">
<rect x="60.7188" y="21.7969" width="1.43075" height="4.23508" rx="0.715376" fill="url(#paint0_radial_156_6796)"/>
<rect x="35.209" y="21.7969" width="26.9386" height="1.49474" rx="0.747368" fill="url(#paint1_radial_156_6796)"/>
<rect x="35.209" y="16.3164" width="1.43075" height="6.97543" rx="0.715376" fill="url(#paint2_radial_156_6796)"/>
<rect x="43.0762" y="14.0742" width="1.43075" height="9.21753" rx="0.715376" fill="url(#paint3_radial_156_6796)"/>
<rect x="50.9434" y="11.832" width="1.43075" height="11.4596" rx="0.715376" fill="url(#paint4_radial_156_6796)"/>
<rect x="59.2871" y="9.33984" width="1.43075" height="13.9509" rx="0.715376" fill="url(#paint5_radial_156_6796)"/>
</mask>
<g mask="url(#mask0_156_6796)">
<rect x="35.209" y="9.33984" width="26.9386" height="16.6912" fill="#46403C"/>
</g>
<rect x="0.5" y="-0.5" width="99" height="32" rx="16" transform="matrix(1 0 0 -1 0 32)" stroke="#46403C"/>
<defs>
<radialGradient id="paint0_radial_156_6796" cx="0" cy="0" r="1" gradientUnits="userSpaceOnUse" gradientTransform="translate(61.4233 25.7776) rotate(-90) scale(3.59285 1.216)">
<stop stop-color="#8AFF8F"/>
<stop offset="1" stop-color="#AB40FF"/>
</radialGradient>
<radialGradient id="paint1_radial_156_6796" cx="0" cy="0" r="1" gradientUnits="userSpaceOnUse" gradientTransform="translate(48.4737 23.2018) rotate(-90) scale(1.26806 22.8952)">
<stop stop-color="#8AFF8F"/>
<stop offset="1" stop-color="#AB40FF"/>
</radialGradient>
<radialGradient id="paint2_radial_156_6796" cx="0" cy="0" r="1" gradientUnits="userSpaceOnUse" gradientTransform="translate(35.9135 22.8729) rotate(-90) scale(5.91763 1.216)">
<stop stop-color="#8AFF8F"/>
<stop offset="1" stop-color="#AB40FF"/>
</radialGradient>
<radialGradient id="paint3_radial_156_6796" cx="0" cy="0" r="1" gradientUnits="userSpaceOnUse" gradientTransform="translate(43.7807 22.7381) rotate(-90) scale(7.81972 1.216)">
<stop stop-color="#8AFF8F"/>
<stop offset="1" stop-color="#AB40FF"/>
</radialGradient>
<radialGradient id="paint4_radial_156_6796" cx="0" cy="0" r="1" gradientUnits="userSpaceOnUse" gradientTransform="translate(51.6479 22.6034) rotate(-90) scale(9.72182 1.216)">
<stop stop-color="#8AFF8F"/>
<stop offset="1" stop-color="#AB40FF"/>
</radialGradient>
<radialGradient id="paint5_radial_156_6796" cx="0" cy="0" r="1" gradientUnits="userSpaceOnUse" gradientTransform="translate(59.9916 22.4528) rotate(-90) scale(11.8353 1.216)">
<stop stop-color="#8AFF8F"/>
<stop offset="1" stop-color="#AB40FF"/>
</radialGradient>
</defs>
</svg>

<svg width="100" height="33" fill="none" xmlns="http://www.w3.org/2000/svg"><path d="M27.768 23.17c-1.666 0-3.016-.594-4.052-1.784a.752.752 0 01-.183-.574.706.706 0 01.274-.51.56.56 0 01.488-.19.762.762 0 01.518.286c.71.829 1.696 1.243 2.955 1.243 1.218 0 2.183-.414 2.894-1.243.731-.828 1.138-2.008 1.219-3.537h-2.959a.749.749 0 01-.518-.191.828.828 0 01-.183-.542c0-.234.061-.415.183-.542a.69.69 0 01.518-.223h2.928c-.142-1.445-.568-2.55-1.28-3.314-.69-.765-1.624-1.148-2.802-1.148-1.26 0-2.244.425-2.955 1.275a.813.813 0 01-.518.255.71.71 0 01-.488-.191.819.819 0 01-.274-.542.658.658 0 01.183-.542c1.036-1.21 2.386-1.816 4.052-1.816 1.706 0 3.057.616 4.052 1.848 1.015 1.232 1.523 2.921 1.523 5.067 0 2.125-.508 3.814-1.523 5.067-.995 1.233-2.346 1.849-4.052 1.849zm41.821.032c-1.727 0-3.087-.616-4.082-1.848-.996-1.254-1.493-2.943-1.493-5.067 0-2.146.497-3.835 1.493-5.067.995-1.233 2.355-1.849 4.082-1.849 1.503 0 2.762.542 3.778 1.625 1.036 1.084 1.594 2.55 1.675 4.398v.096a.717.717 0 01-.213.51c-.122.148-.294.223-.518.223h-8.835c0 1.636.325 2.953.975 3.951.67.999 1.716 1.498 3.138 1.498.731 0 1.412-.16 2.041-.478.65-.34 1.148-.775 1.493-1.306a.768.768 0 01.457-.319.638.638 0 01.548.127.7.7 0 01.305.478c.04.213 0 .404-.122.574-.487.744-1.158 1.339-2.01 1.785a5.651 5.651 0 01-2.712.669zm-4.022-8.477h7.891c-.203-1.211-.65-2.146-1.34-2.804-.67-.659-1.513-.988-2.529-.988-1.097 0-1.99.329-2.681.988-.67.658-1.117 1.593-1.34 2.804zm11.471 8.409a.885.885 0 01-.274-.51.658.658 0 01.182-.541l4.6-6.464-3.838-5.162a.767.767 0 01-.152-.542c.04-.213.132-.393.274-.542a.761.761 0 01.518-.127.661.661 0 01.487.286l3.626 4.876 3.625-4.876a.642.642 0 01.457-.286.734.734 0 01.549.159.706.706 0 01.274.51.766.766 0 01-.153.542l-3.838 5.162 4.63 6.463c.102.15.143.33.122.542a.706.706 0 01-.274.51.562.562 0 01-.518.128.697.697 0 01-.487-.255L82.46 17.11l-4.387 5.896a.697.697 0 01-.488.255.638.638 0 01-.548-.128z" fill="#46403C"/><path fill-rule="evenodd" clip-rule="evenodd" d="M17.79 11.226c-.356-1.075-1.876-1.075-2.232 0l-3.682 11.096a.73.73 0 001.386.46l3.04-9.162.372-1.121.373 1.121 3.04 9.162a.73.73 0 101.386-.46l-3.682-11.096z" fill="#46403C"/><mask id="mask0_156_6796" style="mask-type:alpha" maskUnits="userSpaceOnUse" x="35" y="9" width="28" height="18"><rect x="60.719" y="21.797" width="1.431" height="4.235" rx=".715" fill="url(#paint0_radial_156_6796)"/><rect x="35.209" y="21.797" width="26.939" height="1.495" rx=".747" fill="url(#paint1_radial_156_6796)"/><rect x="35.209" y="16.316" width="1.431" height="6.975" rx=".715" fill="url(#paint2_radial_156_6796)"/><rect x="43.076" y="14.074" width="1.431" height="9.218" rx=".715" fill="url(#paint3_radial_156_6796)"/><rect x="50.943" y="11.832" width="1.431" height="11.46" rx=".715" fill="url(#paint4_radial_156_6796)"/><rect x="59.287" y="9.34" width="1.431" height="13.951" rx=".715" fill="url(#paint5_radial_156_6796)"/></mask><g mask="url(#mask0_156_6796)"><path fill="#46403C" d="M35.209 9.34h26.939v16.691H35.209z"/></g><rect x=".5" y="-.5" width="99" height="32" rx="16" transform="matrix(1 0 0 -1 0 32)" stroke="#46403C"/><defs><radialGradient id="paint0_radial_156_6796" cx="0" cy="0" r="1" gradientUnits="userSpaceOnUse" gradientTransform="matrix(0 -3.59285 1.216 0 61.423 25.778)"><stop stop-color="#8AFF8F"/><stop offset="1" stop-color="#AB40FF"/></radialGradient><radialGradient id="paint1_radial_156_6796" cx="0" cy="0" r="1" gradientUnits="userSpaceOnUse" gradientTransform="matrix(0 -1.26806 22.8952 0 48.474 23.202)"><stop stop-color="#8AFF8F"/><stop offset="1" stop-color="#AB40FF"/></radialGradient><radialGradient id="paint2_radial_156_6796" cx="0" cy="0" r="1" gradientUnits="userSpaceOnUse" gradientTransform="matrix(0 -5.91763 1.216 0 35.913 22.873)"><stop stop-color="#8AFF8F"/><stop offset="1" stop-color="#AB40FF"/></radialGradient><radialGradient id="paint3_radial_156_6796" cx="0" cy="0" r="1" gradientUnits="userSpaceOnUse" gradientTransform="matrix(0 -7.81972 1.216 0 43.78 22.738)"><stop stop-color="#8AFF8F"/><stop offset="1" stop-color="#AB40FF"/></radialGradient><radialGradient id="paint4_radial_156_6796" cx="0" cy="0" r="1" gradientUnits="userSpaceOnUse" gradientTransform="matrix(0 -9.72182 1.216 0 51.648 22.603)"><stop stop-color="#8AFF8F"/><stop offset="1" stop-color="#AB40FF"/></radialGradient><radialGradient id="paint5_radial_156_6796" cx="0" cy="0" r="1" gradientUnits="userSpaceOnUse" gradientTransform="matrix(0 -11.8353 1.216 0 59.992 22.453)"><stop stop-color="#8AFF8F"/><stop offset="1" stop-color="#AB40FF"/></radialGradient></defs></svg>
